X: 1
T: Kate's 24th
M: 4/4
L: 1/8
R: reel
K: Amaj
EFAB cAAe|feae fecA|EFAB cAce|fedc BdcA|
EFAB cAAe|feae fgab|ae ~e2 fedc|1Beed cAAF:|2Beed cAAB||
|:cAce ae~e2|fece aeed|cAce ae~e2|fafe cBBe|
cAce ae~e2|fece aefe|dfed cedc|1BedB cAAB:|2BedB cAAF||
|:E=FAB =cAAB|=cAeB cAA=F|E=FAB =cAAc|BA^GB ~A2=G=F|
E=FAB =cAAB|=cAeB cAA=F|E=FAB =cea=f|1ed=cB cAA=F:|2ed=cB cAAB||
|:^cAce ae~e2|fece aeed|cAce ae~e2|fafe cBBe|
cAce ae~e2|fece aefe|dfed cedc|1BedB cAAB:|2BedB cAA2||
